tools/download-figma-icons/icons/outlined-medium/heat-pump.svg

<svg width="24" height="24" viewBox="0 0 24 24" fill="none" xmlns="http://www.w3.org/2000/svg">
<path fill-rule="evenodd" clip-rule="evenodd" d="M2.2725 2.25H21.7275C22.98 2.25 24 3.27 24 4.5225V18.7275C24 19.98 22.98 21 21.7275 21H20.25V21.75C20.25 22.1625 19.9125 22.5 19.5 22.5H16.5C16.0875 22.5 15.75 22.1625 15.75 21.75V21H8.25V21.75C8.25 22.1625 7.9125 22.5 7.5 22.5H4.5C4.0875 22.5 3.75 22.1625 3.75 21.75V21H2.2725C1.02 21 0 19.98 0 18.7275V4.5225C0 3.27 1.02 2.25 2.2725 2.25ZM21.7275 19.5C22.155 19.5 22.5 19.155 22.5 18.7275V4.5225C22.5 4.095 22.155 3.75 21.7275 3.75H2.2725C1.845 3.75 1.5 4.095 1.5 4.5225V18.7275C1.5 19.155 1.845 19.5 2.2725 19.5H21.7275ZM8.61002 5.20508C5.08502 5.20508 2.21252 8.07758 2.21252 11.6026C2.21252 15.1276 5.07753 18.0001 8.60252 18.0001C12.1275 18.0001 14.9925 15.1351 14.9925 11.6026C14.9925 8.07008 12.135 5.20508 8.61002 5.20508ZM8.61002 16.4926C5.91002 16.4926 3.72002 14.2951 3.72002 11.5951C3.72002 8.89508 5.91752 6.70508 8.61002 6.70508C11.3025 6.70508 13.5 8.90258 13.5 11.5951C13.5 14.2876 11.3025 16.4926 8.61002 16.4926ZM10.02 11.1077C9.91504 10.8077 9.72004 10.5527 9.46504 10.3727C9.70504 10.0352 10.2675 9.93017 11.235 10.0277C11.46 10.0427 11.685 9.93767 11.7975 9.73517C11.9175 9.53267 11.9025 9.29267 11.775 9.10517C10.9875 7.95767 9.75754 7.53017 8.87254 7.50767C8.22754 7.49267 7.71004 7.68017 7.44754 8.01767C6.72754 8.90267 7.11754 9.99017 7.50754 10.5827C7.29004 10.8152 7.14754 11.1152 7.11754 11.4527C6.72754 11.3777 6.36754 10.9502 5.99254 10.1027C5.89504 9.89267 5.69254 9.75767 5.46004 9.75767C5.22754 9.75767 5.02504 9.88517 4.92754 10.0952C4.32754 11.3477 4.56754 12.6302 4.98754 13.4027C5.29504 13.9652 5.72254 14.3252 6.14254 14.3777C6.24754 14.3927 6.34504 14.4002 6.44254 14.4002C7.38754 14.4002 8.03254 13.6427 8.32504 13.0727C8.41504 13.0877 8.51254 13.1027 8.61004 13.1027C8.85004 13.1027 9.07504 13.0427 9.27754 12.9377C9.41254 13.3127 9.22504 13.8377 8.67754 14.6027C8.54254 14.7902 8.52754 15.0377 8.64754 15.2402C8.75254 15.4277 8.94754 15.5402 9.15754 15.5402H9.21004C10.5975 15.4277 11.58 14.5877 12.045 13.8302C12.3825 13.2827 12.48 12.7352 12.315 12.3377C11.9025 11.2502 10.725 11.0552 10.02 11.1077ZM16.5 5.25H20.25C20.6625 5.25 21 5.5875 21 6V9C21 9.4125 20.6625 9.75 20.25 9.75H16.5C16.0875 9.75 15.75 9.4125 15.75 9V6C15.75 5.5875 16.0875 5.25 16.5 5.25ZM17.25 8.25H19.5V6.75H17.25V8.25ZM20.25 11.25H16.5C16.0875 11.25 15.75 11.5875 15.75 12C15.75 12.4125 16.0875 12.75 16.5 12.75H20.25C20.6625 12.75 21 12.4125 21 12C21 11.5875 20.6625 11.25 20.25 11.25ZM16.5 13.875H20.25C20.6625 13.875 21 14.2125 21 14.625C21 15.0375 20.6625 15.375 20.25 15.375H16.5C16.0875 15.375 15.75 15.0375 15.75 14.625C15.75 14.2125 16.0875 13.875 16.5 13.875ZM20.25 16.5H16.5C16.0875 16.5 15.75 16.8375 15.75 17.25C15.75 17.6625 16.0875 18 16.5 18H20.25C20.6625 18 21 17.6625 21 17.25C21 16.8375 20.6625 16.5 20.25 16.5Z" fill="black"/>
</svg>

<svg xmlns="http://www.w3.org/2000/svg" width="24" height="24" fill="none" viewBox="0 0 24 24"><path fill="currentColor" fill-rule="evenodd" d="M2.273 2.25h19.455A2.276 2.276 0 0 1 24 4.523v14.205A2.276 2.276 0 0 1 21.727 21H20.25v.75c0 .413-.337.75-.75.75h-3a.75.75 0 0 1-.75-.75V21h-7.5v.75c0 .413-.338.75-.75.75h-3a.75.75 0 0 1-.75-.75V21H2.273A2.276 2.276 0 0 1 0 18.727V4.523A2.276 2.276 0 0 1 2.273 2.25M21.728 19.5a.77.77 0 0 0 .772-.773V4.523a.77.77 0 0 0-.773-.773H2.273a.77.77 0 0 0-.773.773v14.205c0 .427.345.772.773.772zM8.61 5.205c-3.525 0-6.397 2.873-6.397 6.398S5.078 18 8.603 18a6.397 6.397 0 0 0 6.39-6.397c0-3.533-2.858-6.398-6.383-6.398m0 11.288c-2.7 0-4.89-2.198-4.89-4.898s2.198-4.89 4.89-4.89a4.9 4.9 0 0 1 4.89 4.89c0 2.693-2.197 4.898-4.89 4.898m1.41-5.385c-.105-.3-.3-.555-.555-.735.24-.338.803-.443 1.77-.345a.593.593 0 0 0 .54-.923 3.7 3.7 0 0 0-2.902-1.597c-.645-.015-1.163.172-1.425.51-.72.885-.33 1.972.06 2.565a1.45 1.45 0 0 0-.39.87c-.39-.075-.75-.503-1.125-1.35a.58.58 0 0 0-.533-.345.58.58 0 0 0-.532.337 3.7 3.7 0 0 0 .06 3.308c.307.562.735.922 1.155.975.105.015.202.022.3.022.945 0 1.59-.757 1.882-1.327.09.015.188.03.285.03.24 0 .465-.06.668-.165.135.375-.053.9-.6 1.665a.58.58 0 0 0-.03.637c.105.188.3.3.51.3h.052a3.71 3.71 0 0 0 2.835-1.71c.338-.547.435-1.095.27-1.492-.412-1.088-1.59-1.283-2.295-1.23M16.5 5.25h3.75c.413 0 .75.338.75.75v3c0 .412-.337.75-.75.75H16.5a.75.75 0 0 1-.75-.75V6c0-.412.337-.75.75-.75m.75 3h2.25v-1.5h-2.25zm3 3H16.5a.75.75 0 0 0-.75.75c0 .412.337.75.75.75h3.75c.413 0 .75-.338.75-.75a.75.75 0 0 0-.75-.75m-3.75 2.625h3.75c.413 0 .75.338.75.75s-.337.75-.75.75H16.5a.75.75 0 0 1-.75-.75c0-.412.337-.75.75-.75m3.75 2.625H16.5a.75.75 0 0 0-.75.75c0 .413.337.75.75.75h3.75c.413 0 .75-.337.75-.75a.75.75 0 0 0-.75-.75" clip-rule="evenodd"/></svg>
